!!!COM: Anonymous
!!!OTL@@LAT: Martine Sancte Pontifex
!!!TXO: Latin
!!!ODT: 
!!!GTL: Hymnbook E
!!!ARL: Biblioteka Diecezjalna w Sandomierzu 
!!!voices:	4
**kern	**text	**kern	**text	**kern	**text	**kern	**text
*staff4	*staff4	*staff3	*staff3	*staff2	*staff2	*staff1	*staff1
*I"Basso	*	*I"Canto III	*	*I"Canto II	*	*I"Canto I	*
=1-	=1-	=1-	=1-	=1-	=1-	=1-	=1-
*clefF4	*	*clefG2	*	*clefG2	*	*clefG2	*
*k[b-]	*	*k[b-]	*	*k[b-]	*	*k[b-]	*
*met(c|)	*	*met(c|)	*	*met(c|)	*	*met(c|)	*
*M2/2	*	*M2/2	*	*M2/2	*	*M2/2	*
2r	.	2r	.	2r	.	2r	.
2D\	Mar-	2a/	Mar-	2dd\	Mar-	2dd\	Mar-
=2	=2	=2	=2	=2	=2	=2	=2
2G\	-ti-	2b-\	-ti-	2dd\	-ti-	2b-\	-ti-
2G\	-ne	2b-\	-ne	2dd\	-ne	[2dd\	-ne
=3	=3	=3	=3	=3	=3	=3	=3
1B-	San-	1b-	San-	1dd	San-	4dd\]	.
.	.	.	.	.	.	4cc\	.
.	.	.	.	.	.	4dd\	.
.	.	.	.	.	.	4ee\	.
=4	=4	=4	=4	=4	=4	=4	=4
2F\	-cte	2a/	-cte	2cc\	-cte	1ff	San-
[2D\	Pon-	[2dd\	Pon-	[2ff\	Pon-	.	.
=5	=5	=5	=5	=5	=5	=5	=5
4D\]	.	2dd\]	.	2ff\]	.	2dd\	-cte
4E\	.	.	.	.	.	.	.
4F\	.	4cc\	.	4ee\	.	4a/	Pon-
4G\	.	4b-\	.	4dd\	.	4b-\	.
=6	=6	=6	=6	=6	=6	=6	=6
1A	.	4a/	.	2.cc#i\	.	4cc#i\	.
.	.	4b-\	.	.	.	4dd\	.
.	.	4cc#i\	.	.	.	4ee\	.
.	.	4a/	.	4dd\	.	4ff\	.
=7	=7	=7	=7	=7	=7	=7	=7
2G\	.	2b-\	.	4ee\	.	4gg\	.
.	.	.	.	4cc#i\	.	4ff\	.
2B-\	.	2g/	-ti-	[2dd\	.	4ee\	.
.	.	.	.	.	.	4dd\	.
=8	=8	=8	=8	=8	=8	=8	=8
1A	-ti-	[1a	-fex	2dd\]	.	1ee	-ti-
.	.	.	.	2cc#i\	-ti-	.	.
=9	=9	=9	=9	=9	=9	=9	=9
[1D	-fex	1a]	.	1dd	-fex	1dd	-fex
=10	=10	=10	=10	=10	=10	=10	=10
1D]	.	2r	.	2r	.	2r	.
.	.	[2b-\	fe-	[2dd\	fe-	[2b-\	fe-
=11	=11	=11	=11	=11	=11	=11	=11
1r	.	2b-\]	.	2dd\]	.	2b-\]	.
.	.	2a/	-lix	2cc\	-lix	2cc\	-lix
=12	=12	=12	=12	=12	=12	=12	=12
1r	.	2g/	di-	2b-\	di-	2ee-\	di-
.	.	[2a/	-es	[2cc\	-es	2cc\	-es
=13	=13	=13	=13	=13	=13	=13	=13
1r	.	2a/]	.	4cc\]	.	2ee-i\	i-
.	.	.	.	4b-\	.	.	.
.	.	[2g/	i-	4a/	.	[2dd\	.
.	.	.	.	4g/	.	.	.
=14	=14	=14	=14	=14	=14	=14	=14
2r	.	2g/]	.	1a	i-	2dd\]	.
2D\	fe-	2f#/	.	.	.	2a/	-sta
=15	=15	=15	=15	=15	=15	=15	=15
[1G	-lix	1g	-sta	2g/	-sta	2.b-\	fe-
.	.	.	.	[2b-\	fe-	.	.
.	.	.	.	.	.	4a/	-lix
=16	=16	=16	=16	=16	=16	=16	=16
2G\]	.	1r	.	2b-\]	.	2g/	di-
2F#i\	di-	.	.	[2a/	-lix	2a/	.
=17	=17	=17	=17	=17	=17	=17	=17
2G\	-es	2r	.	4a/]	.	2b-\	.
.	.	.	.	4g/	di-	.	.
2C/	i-	2g/	sis	[2g/	-es	2cc\	es
=18	=18	=18	=18	=18	=18	=18	=18
1D	-sta	2.dd\	mi-	2g/]	.	1a	i-
.	.	.	.	2f#i/	i-	.	.
.	.	4cc\	-se-	.	.	.	.
=19	=19	=19	=19	=19	=19	=19	=19
2r	.	4b-\	.	2g/	-sta	1g	-sta
.	.	4a/	.	.	.	.	.
2G\	sis	[2b-\	.	2dd\	sis	.	.
=20	=20	=20	=20	=20	=20	=20	=20
2G\	mi-	2b-\]	.	2dd\	mi-	1b-	sis
2G\	-se-	4a/	-ro-	2dd\	-se-	.	.
.	.	4g/	.	.	.	.	.
=21	=21	=21	=21	=21	=21	=21	=21
1F	-ro-	[1a	.	[1ff	-ro-	1cc	mi-
=22	=22	=22	=22	=22	=22	=22	=22
1D	-rum	2a/]	.	1ff]	.	1dd	-se-
.	.	2a/	-rum	.	.	.	.
=23	=23	=23	=23	=23	=23	=23	=23
2.G\	o-	2b-\	o-	2.dd\	.	1dd	-ro-
.	.	2g/	-pi-	.	.	.	.
4A\	.	.	.	4cc\	.	.	.
=24	=24	=24	=24	=24	=24	=24	=24
2B-\	.	1f	-fex	2dd\	.	2b-\	-rum
2F\	.	.	.	[2cc\	-rum	2a/	o-
=25	=25	=25	=25	=25	=25	=25	=25
1G	.	1r	.	2cc\]	.	1b-	-pi-
.	.	.	.	[2b-\	o-	.	.
=26	=26	=26	=26	=26	=26	=26	=26
1F	-pi-	1r	.	2b-\]	.	1cc	-fex
.	.	.	.	2a/	-pi-	.	.
=27	=27	=27	=27	=27	=27	=27	=27
1BB-	-fex	[1dd	fe-	2b-\	-fex	2r	.
.	.	.	.	[2ff\	fe-	[2b-\	fe-
=28	=28	=28	=28	=28	=28	=28	=28
1r	.	2dd\]	.	2ff\]	.	2b-\]	.
.	.	2cc\	-lix	2ee-\	-lix	2cc\	-lix
=29	=29	=29	=29	=29	=29	=29	=29
1r	.	2b-\	di-	2dd\	di-	2dd\	di-
.	.	4a/	-es	2cc\	-es	2ee-\	-es
.	.	4g/	.	.	.	.	.
=30	=30	=30	=30	=30	=30	=30	=30
1r	.	1a	i-	1dd	i-	1dd	i-
=31	=31	=31	=31	=31	=31	=31	=31
2r	.	2g/	-sta	1dd	-sta	2g/	-sta
[2BB-/	fe-	[2b-\	fe-	.	.	[2dd\	fe-
=32	=32	=32	=32	=32	=32	=32	=32
2BB-/]	.	2b-\]	.	1r	.	2dd\]	.
2C/	-lix	4a/	-lix	.	.	2cc\	-lix
.	.	4g/	.	.	.	.	.
=33	=33	=33	=33	=33	=33	=33	=33
2D\	di-	4f#i/	di-	2r	.	2b-\	di-
.	.	4d/	.	.	.	.	.
2E-\	-es	[2g/	-es	2g/	di-	4a/	-es
.	.	.	.	.	.	4g/	.
=34	=34	=34	=34	=34	=34	=34	=34
1D	i-	2g/]	.	2dd\	-es	1a	i-
.	.	2f#i/	i-	2a/	i-	.	.
=35	=35	=35	=35	=35	=35	=35	=35
[1GG	-sta.	[1g	-sta.	[1bni	-sta.	[1g	-sta.
=36	=36	=36	=36	=36	=36	=36	=36
1GG]	.	1g]	.	1b]	.	1g]	.
==	==	==	==	==	==	==	==
*-	*-	*-	*-	*-	*-	*-	*-
!!!GTL: Hymnbook L 1642
!!!EFL: 36/39
!!!YEM: Creative Commons CC/BY/NC/SA 4.0
!!!ENC: Marcin Konik
!!!END: 2015-02-23 
!!!EED: Marcin Konik
!!!EEV: 
!!!ONB: Translated from MusicXML and edited by Marcin Konik
!!!CharacterEncoding: utf-8
!!!RDF**kern: i=editorial accidental
!!muse2ps: z14jc180F
!!title: @{OTL}, @{GTL}: @{pag}, ed. @{ENC}
